source/images/icons/icon-utility/location.svg

<?xml version="1.0" encoding="UTF-8"?>
<svg width="24px" height="24px" viewBox="0 0 24 24" version="1.1" xmlns="http://www.w3.org/2000/svg" xmlns:xlink="http://www.w3.org/1999/xlink">
    <!-- Generator: Sketch 55.2 (78181) - https://sketchapp.com -->
    <title>Icons/24px/Location</title>
    <desc>Created with Sketch.</desc>
    <g id="Icons/24px/Location" stroke="none" stroke-width="1" fill="none" fill-rule="evenodd">
        <path d="M14.9877092,18.0902052 C15.3936159,17.7156947 16.0262692,17.7411464 16.4007797,18.1470532 C16.7752902,18.55296 16.7498385,19.1856132 16.3439317,19.5601237 C15.5465751,20.295806 14.3143674,21.3629769 12.6429074,22.7659439 C12.2926766,23.0599158 11.7876611,23.0788852 11.416364,22.8120154 C5.8462479,18.8084945 3,14.5391226 3,10 C3,5.21541286 7.11724559,1 12,1 C16.8827544,1 21,5.21541286 21,10 C21,12.0988219 20.3868131,14.1514561 19.1744733,16.1427154 C18.887268,16.6144479 18.2720274,16.7640368 17.8002948,16.4768316 C17.3285623,16.1896263 17.1789734,15.5743857 17.4661787,15.1026531 C18.4934042,13.4154426 19,11.7196207 19,10 C19,6.30957233 15.7675,3 12,3 C8.2325,3 5,6.30957233 5,10 C5,13.6355648 7.28345039,17.2127529 11.9580128,20.7281336 C13.3040326,19.5912318 14.314912,18.7109626 14.9877092,18.0902052 Z M12,14 C9.790861,14 8,12.209139 8,10 C8,7.790861 9.790861,6 12,6 C14.209139,6 16,7.790861 16,10 C16,12.209139 14.209139,14 12,14 Z M12,12 C13.1045695,12 14,11.1045695 14,10 C14,8.8954305 13.1045695,8 12,8 C10.8954305,8 10,8.8954305 10,10 C10,11.1045695 10.8954305,12 12,12 Z" id="Icon" fill="#ADB5BD"></path>
    </g>
</svg>

<svg width="24" height="24">
    <title>
        Icons/24px/Location
    </title>
    <path d="M14.988 18.09a1 1 0 1 1 1.356 1.47c-.797.736-2.03 1.803-3.701 3.206a1 1 0 0 1-1.227.046C5.846 18.808 3 14.539 3 10c0-4.785 4.117-9 9-9s9 4.215 9 9c0 2.099-.613 4.151-1.826 6.143a1 1 0 0 1-1.708-1.04C18.493 13.415 19 11.72 19 10c0-3.69-3.232-7-7-7s-7 3.31-7 7c0 3.636 2.283 7.213 6.958 10.728a99.323 99.323 0 0 0 3.03-2.638zM12 14a4 4 0 1 1 0-8 4 4 0 0 1 0 8zm0-2a2 2 0 1 0 0-4 2 2 0 0 0 0 4z" fill="#ADB5BD" fill-rule="evenodd"/>
</svg>
